Papirus/22x22/apps/libreoffice-draw.svg

<svg xmlns="http://www.w3.org/2000/svg" width="22" height="22" version="1">
 <path style="fill:#fec006" d="M 19,20 V 2 C 19,1.446 18.554,1 18,1 H 4 C 3.446,1 3,1.446 3,2 v 18 c 0,0.554 0.446,1 1,1 h 14 c 0.554,0 1,-0.446 1,-1 z"/>
 <path style="opacity:0.2" d="M 5.4615,3.5 C 5,3.5 5,3.9706 5,3.9706 v 15.058 c 0,0 0,0.47059 0.46154,0.47059 h 11.106 c 0,0 0.43292,0 0.43292,-0.47059 l -0.001,-9.4114 -5.646,-6.1176 z M 13.254,3.5 17,7.5588 V 3.9706 C 17,3.5 16.538,3.5 16.538,3.5 Z"/>
 <path style="opacity:0.2;fill:#ffffff" d="M 4,1 C 3.446,1 3,1.446 3,2 v 0.5 c 0,-0.554 0.446,-1 1,-1 h 14 c 0.554,0 1,0.446 1,1 V 2 C 19,1.446 18.554,1 18,1 Z"/>
 <path style="fill:#f5f5f5" d="M 5.4615,3 C 5,3 5,3.4706 5,3.4706 v 15.058 c 0,0 0,0.471 0.4615,0.471 h 11.106 c -10e-4,0 0.432,0 0.432,-0.471 V 9.1172 L 11.3535,2.9996 Z M 13.254,3 17,7.0588 V 3.4706 C 17,3 16.538,3 16.538,3 Z"/>
 <path style="opacity:0.2" d="m 3,20 v 0.5 c 0,0.554 0.446,1 1,1 h 14 c 0.554,0 1,-0.446 1,-1 V 20 c 0,0.554 -0.446,1 -1,1 H 4 C 3.446,21 3,20.554 3,20 Z"/>
 <path style="opacity:0.5;fill:none;stroke:#000000;stroke-linecap:square" d="m 6.5109243,13.518242 0.7693,0.017 c 1.5141,0.033 2.8522247,0.210478 3.3887747,1.043328 1.25185,1.9431 -1.127626,2.5732 -2.1238247,1.2009 -0.93095,-1.50625 -0.60925,-4.885827 0.7320487,-5.249227 2.42705,-0.55315 2.829,3.549327 4.3232,2.797277 1.15415,-0.5809 -0.7297,-3.171227 0.39941,-3.799276 0.483935,-0.2692 1.49625,0.672327 1.49625,0.672327"/>
</svg>

<svg xmlns="http://www.w3.org/2000/svg" width="22" height="22" version="1">
 <path fill="#fec006" d="m19 20v-18c0-0.554-0.446-1-1-1h-14c-0.554 0-1 0.446-1 1v18c0 0.554 0.446 1 1 1h14c0.554 0 1-0.446 1-1z"/>
 <path opacity=".2" d="m5.4615 3.5c-0.4615 0-0.4615 0.4706-0.4615 0.4706v15.058s0 0.47059 0.46154 0.47059h11.106s0.43292 0 0.43292-0.47059l-0.001-9.4114-5.646-6.1176zm7.7925 0 3.746 4.0588v-3.5882c0-0.4706-0.462-0.4706-0.462-0.4706z"/>
 <path fill="#fff" opacity=".1" d="m4 1c-0.554 0-1 0.446-1 1v0.5c0-0.554 0.446-1 1-1h14c0.554 0 1 0.446 1 1v-0.5c0-0.554-0.446-1-1-1z"/>
 <path fill="#f5f5f5" d="m5.4615 3c-0.4615 0-0.4615 0.4706-0.4615 0.4706v15.058s0 0.471 0.4615 0.471h11.106c-0.001 0 0.432 0 0.432-0.471v-9.4114l-5.646-6.1176zm7.7925 0 3.746 4.0588v-3.5882c0-0.4706-0.462-0.4706-0.462-0.4706z"/>
 <path fill="none" stroke="#000" stroke-linecap="square" opacity=".5" d="m6.511 13.548 0.7693 0.017c1.5141 0.033 2.9522 0.41035 3.4888 1.2432 1.2518 1.9431-1.2276 2.5732-2.2238 1.2009-0.931-1.507-0.6093-4.636 0.732-4.999 2.427-0.55315 2.829 3.2991 4.3232 2.547 1.1542-0.5809-0.7297-3.2212 0.39941-3.8492 0.48394-0.2692 1.4962 0.72225 1.4962 0.72225"/>
 <path opacity=".2" d="m3 20v0.5c0 0.554 0.446 1 1 1h14c0.554 0 1-0.446 1-1v-0.5c0 0.554-0.446 1-1 1h-14c-0.554 0-1-0.446-1-1z"/>
</svg>
